X: 33056
T: Pride Of The Turtle Dove, The
R: reel
M: 4/4
K: Cmajor
CDEF GEFD|ECD_B, CG,A,B,|CDEF GEFD|ECD_B, G,2G,2|
CDEF GEFD|ECD_B, CG,A,B,|CDEF GEFD|ECC_B, C2C2||
c3c c3c|dc_BA GFGB|c3c c3c|d_ed_B G4|
c3c c3c|dc_BA GFGB|c3c d_ed_B|cGFD [=E4c4]||

